src/pos-icons/skew-less.svg

<svg height="24" viewBox="0 0 24 24" width="24" xmlns="http://www.w3.org/2000/svg"><path d="m17.5 11-2.09 9h-4.91l2.09-9zm2.5-2h-9l-3 13h9zm-16-3 4-4v3h8v2h-8v3z"/></svg>

<?xml version="1.0" encoding="UTF-8"?><!DOCTYPE svg PUBLIC "-//W3C//DTD SVG 1.1//EN" "http://www.w3.org/Graphics/SVG/1.1/DTD/svg11.dtd"><svg xmlns="http://www.w3.org/2000/svg" xmlns:xlink="http://www.w3.org/1999/xlink" version="1.1" id="mdi-skew-less" width="24" height="24" viewBox="0 0 24 24"><path d="M17.5,11L15.41,20H10.5L12.59,11H17.5M20,9H11L8,22H17L20,9M4,6L8,2V5H16V7H8V10L4,6Z" /></svg>
